electron/recovery/images/logo/logotipo_1024.svg

<?xml version="1.0" standalone="no"?><!-- Generator: Adobe Fireworks CS6, Export SVG Extension by Aaron Beall (http://fireworks.abeall.com) . Version: 0.6.1  --><!DOCTYPE svg PUBLIC "-//W3C//DTD SVG 1.1//EN" "http://www.w3.org/Graphics/SVG/1.1/DTD/svg11.dtd"><svg id="logotipo_making.fw-Page%201" viewBox="0 0 1024 1024" style="background-color:#ffffff" version="1.1"	xmlns="http://www.w3.org/2000/svg" xmlns:xlink="http://www.w3.org/1999/xlink" xml:space="preserve"	x="0px" y="0px" width="1024px" height="1024px">	<g id="frame">		<g visibility="hidden">			<path d="M 8 259.25 C 8 120.4867 120.4867 8 259.25 8 L 761.75 8 C 900.5134 8 1013 120.4867 1013 259.25 L 1013 761.75 C 1013 900.5133 900.5134 1013 761.75 1013 L 259.25 1013 C 120.4867 1013 8 900.5133 8 761.75 L 8 259.25 Z" stroke="#7fff00" stroke-width="20" fill="#ffffff"/>		</g>		<g visibility="hidden">			<path d="M 6 258.5 C 6 119.0463 119.0463 6 258.5 6 L 763.5 6 C 902.9537 6 1016 119.0463 1016 258.5 L 1016 763.5 C 1016 902.9536 902.9537 1016 763.5 1016 L 258.5 1016 C 119.0463 1016 6 902.9536 6 763.5 L 6 258.5 Z" stroke="#7fff00" stroke-width="10" fill="none"/>		</g>	</g>	<g id="new%20sugestion%201">		<path d="M 997.3333 170.6667 L 997.0001 590.5947 " stroke="#777777" stroke-width="28" fill="none"/>		<path d="M 550 501 L 550 173 " stroke="#777777" stroke-width="28" fill="none"/>		<path id="Ellipse" d="M 550.123 173.7317 C 550.123 138.5332 650.1582 110 773.5615 110 C 896.9648 110 997.0001 138.5332 997.0001 173.7317 C 997.0001 208.9302 896.9648 237.4634 773.5615 237.4634 C 650.1582 237.4634 550.123 208.9302 550.123 173.7317 Z" stroke="#777777" stroke-width="28" fill="none"/>		<path id="Ellipse2" d="M 996.9868 310.2997 C 996.9956 310.5328 997.0001 310.7663 997.0001 311 C 997.0001 346.1985 896.9648 374.7317 773.5615 374.7317 C 658.452 374.7317 563.675 349.905 551.4553 318 " stroke="#777777" stroke-width="28" fill="none"/>		<path id="Ellipse3" d="M 996.9927 447.7464 C 996.9976 447.9202 997.0001 448.0941 997.0001 448.2683 C 997.0001 483.4668 896.9648 512 773.5615 512 C 663.4019 512 571.8637 489.2625 553.4849 459.3435 " stroke="#777777" stroke-width="28" fill="none"/>		<path id="Ellipse4" d="M 997.0001 590.5947 C 989.7808 623.9345 892.2673 650.6689 773.5615 650.6689 C 746.6552 650.6689 720.8597 649.3125 696.9699 646.8262 " stroke="#777777" stroke-width="28" fill="none"/>		<path id="Ellipse5" d="M 921.6866 282.7603 C 921.6866 276.644 926.6452 271.6859 932.7621 271.6859 C 938.879 271.6859 943.8376 276.644 943.8376 282.7603 C 943.8376 288.8766 938.879 293.8347 932.7621 293.8347 C 926.6452 293.8347 921.6866 288.8766 921.6866 282.7603 Z" stroke="#7fff00" stroke-width="18" fill="#7fff00"/>		<path id="Ellipse6" d="M 921.6866 424.5124 C 921.6866 418.3961 926.6452 413.438 932.7621 413.438 C 938.879 413.438 943.8376 418.3961 943.8376 424.5124 C 943.8376 430.6287 938.879 435.5868 932.7621 435.5868 C 926.6452 435.5868 921.6866 430.6287 921.6866 424.5124 Z" stroke="#7fff00" stroke-width="18" fill="#7fff00"/>		<path id="Ellipse7" d="M 921.6866 564.0496 C 921.6866 557.9333 926.6452 552.9752 932.7621 552.9752 C 938.879 552.9752 943.8376 557.9333 943.8376 564.0496 C 943.8376 570.1659 938.879 575.124 932.7621 575.124 C 926.6452 575.124 921.6866 570.1659 921.6866 564.0496 Z" stroke="#7fff00" stroke-width="18" fill="#7fff00"/>		<rect x="170.4879" y="884.5847" width="339.0103" height="22.4111" stroke="#777777" stroke-width="12" fill="#777777"/>		<rect x="299.3678" y="871.9784" width="105.0652" height="42.0216" stroke="#777777" stroke-width="12" fill="#777777"/>		<rect x="325.9843" y="843.9645" width="51.8322" height="63.0313" stroke="#777777" stroke-width="12" fill="#777777"/>		<path d="M 403.0319 457.4542 C 404.6595 457.4001 406.294 457.3728 407.9349 457.3728 C 457.5693 457.3728 500.1713 480.4178 525.9609 518.3255 C 534.0366 516.9297 542.3442 516.2021 550.8235 516.2021 C 630.1265 516.2021 694.4125 579.8531 694.4125 658.3729 C 694.4125 736.0676 631.4702 799.2045 553.3179 800.5225 L 170.3864 800.5272 C 92.0991 799.3616 29 736.1644 29 658.3729 C 29 597.0099 68.2618 544.7279 123.2699 524.8099 C 121.8244 516.7168 122.8582 505.7965 122.8582 497.2927 C 122.8582 418.773 187.1441 355.1219 266.4472 355.1219 C 331.6153 355.1219 386.6424 398.1048 404.1882 457 " stroke="#4da6ff" stroke-width="28" fill="none"/>		<path d="M 449.1937 542.7665 C 426.5487 527.9893 399.4279 519.3893 370.2781 519.3893 C 368.6372 519.3893 367.0027 519.4167 365.3751 519.4708 C 354.6702 480.1746 329.4401 450.3381 293.4556 432.3369 " stroke="#4da6ff" stroke-width="22" fill="none"/>	</g></svg>

<svg viewBox="0 0 1024 1024" style="background-color:#fff" xmlns="http://www.w3.org/2000/svg" width="1024" height="1024"><g visibility="hidden"><path d="M8 259.25C8 120.487 120.487 8 259.25 8h502.5C900.513 8 1013 120.487 1013 259.25v502.5C1013 900.513 900.513 1013 761.75 1013h-502.5C120.487 1013 8 900.513 8 761.75v-502.5z" stroke="#7fff00" stroke-width="20" fill="#fff"/><path d="M6 258.5C6 119.046 119.046 6 258.5 6h505C902.954 6 1016 119.046 1016 258.5v505c0 139.454-113.046 252.5-252.5 252.5h-505C119.046 1016 6 902.954 6 763.5v-505z" stroke="#7fff00" stroke-width="10" fill="none"/></g><path d="M997.333 170.667L997 590.595M550 501V173M550.123 173.732c0-35.199 100.035-63.732 223.438-63.732 123.404 0 223.44 28.533 223.44 63.732 0 35.198-100.036 63.731-223.44 63.731-123.403 0-223.438-28.533-223.438-63.731zM996.987 310.3c.009.233.013.466.013.7 0 35.199-100.035 63.732-223.438 63.732-115.11 0-209.887-24.827-222.107-56.732M996.993 447.746c.005.174.007.348.007.522C997 483.467 896.965 512 773.562 512c-110.16 0-201.698-22.738-220.077-52.656M997 590.595c-7.22 33.34-104.733 60.074-223.438 60.074-26.907 0-52.702-1.356-76.592-3.843" stroke="#777" stroke-width="28" fill="none"/><path d="M921.687 282.76c0-6.116 4.958-11.074 11.075-11.074 6.117 0 11.076 4.958 11.076 11.074 0 6.117-4.959 11.075-11.076 11.075-6.117 0-11.075-4.958-11.075-11.075zM921.687 424.512c0-6.116 4.958-11.074 11.075-11.074 6.117 0 11.076 4.958 11.076 11.074 0 6.117-4.959 11.075-11.076 11.075-6.117 0-11.075-4.958-11.075-11.075zM921.687 564.05c0-6.117 4.958-11.075 11.075-11.075 6.117 0 11.076 4.958 11.076 11.075 0 6.116-4.959 11.074-11.076 11.074-6.117 0-11.075-4.958-11.075-11.074z" stroke="#7fff00" stroke-width="18" fill="#7fff00"/><path stroke="#777" stroke-width="12" fill="#777" d="M170.488 884.585h339.01v22.411h-339.01z"/><path stroke="#777" stroke-width="12" fill="#777" d="M299.368 871.978h105.065V914H299.368z"/><path stroke="#777" stroke-width="12" fill="#777" d="M325.984 843.965h51.832v63.031h-51.832z"/><path d="M403.032 457.454c1.627-.054 3.262-.081 4.903-.081 49.634 0 92.236 23.045 118.026 60.953a145.9 145.9 0 0 1 24.862-2.124c79.303 0 143.59 63.651 143.59 142.17 0 77.696-62.943 140.833-141.095 142.15l-382.932.005C92.1 799.362 29 736.164 29 658.373c0-61.363 39.262-113.645 94.27-133.563-1.446-8.093-.412-19.013-.412-27.517 0-78.52 64.286-142.171 143.59-142.171 65.167 0 120.194 42.983 137.74 101.878" stroke="#4da6ff" stroke-width="28" fill="none"/><path d="M449.194 542.766c-22.645-14.777-49.766-23.377-78.916-23.377-1.64 0-3.275.028-4.903.082-10.705-39.296-35.935-69.133-71.92-87.134" stroke="#4da6ff" stroke-width="22" fill="none"/></svg>
